X: 1098
T: American Wake
R: jig
M: 6/8
K: Dmajor
|:B/c/|dfd cec|BAB BAF|EFA BAB|c2 B BAF|
dfd cec|BAB BAF|EFA BAB|eAA A2:|
|:B|cAA fdf|efe cBA|eAA fAA|fec B2 B|
cAA fdf|efe cBA|ABc BAB|cAA A2:|

